badges/Vuetify.svg

<svg height="24" viewBox="0 0 65 24" width="65" xmlns="http://www.w3.org/2000/svg"><path d="m5.999 0h53.002q.1473 0 .2944.00722606.147.00722604.2936.02166074.1466.0144347.2922.0360433.1457.0216086.2901.0503389.1445.02873.2873.064513.1429.035783.2838.078533.1409.042749.2796.092362.1387.049613.2747.10597.1361.056356.2692.119321.1331.062965.263.132386.1299.069422.2562.145132.1263.07571.2488.157524.1224.08182.2407.16955.1183.08772.2321.18115.1139.09343.223.19232.1091.0989.2132.20304.1042.10413.2031.21325.0989.10912.1923.22295.0934.11384.1811.23213.0878.11829.1696.24073.0818.12245.1575.24877.0757.12631.1451.25619.0695.12988.1324.26301.063.13312.1194.26918.0563.13606.1059.27472.0496.13866.0924.27958.0427.14093.0785.28378.0358.14286.0645.28729.0288.14444.0504.29011.0216.14568.036.29224.0144.14655.0217.29364.0072.14709.0072.29436v12.002q0 .1473-.0072.2944-.0073.147-.0217.2936-.0144.1466-.036.2922-.0216.1457-.0504.2901-.0287.1445-.0645.2873-.0358.1429-.0785.2838-.0428.1409-.0924.2796-.0496.1387-.1059.2747-.0564.1361-.1194.2692-.0629.1331-.1324.263-.0694.1299-.1451.2562-.0757.1263-.1575.2488-.0818.1224-.1696.2407-.0877.1183-.1811.2321-.0934.1139-.1923.223-.0989.1091-.2031.2132-.1041.1042-.2132.2031-.1091.0989-.223.1923-.1138.0934-.2321.1811-.1183.0878-.2407.1696-.1225.0818-.2488.1575-.1263.0757-.2562.1451-.1299.0695-.263.1324-.1331.063-.2692.1193-.136.0564-.2747.106-.1387.0496-.2796.0924-.1409.0427-.2838.0785-.1428.0358-.2873.0645-.1444.0288-.2901.0504-.1456.0216-.2922.036-.1466.0144-.2936.0217-.1471.0072-.2944.0072h-53.002q-.14727 0-.29436-.0072-.14709-.0073-.29364-.0217-.14656-.0144-.29224-.036-.14567-.0216-.29011-.0504-.14443-.0287-.28729-.0645-.14285-.0358-.28378-.0785-.14092-.0428-.27958-.0924-.13866-.0496-.27472-.106-.13606-.0563-.26918-.1193-.13313-.0629-.26301-.1324-.12988-.0694-.25619-.1451-.12632-.0757-.24877-.1575-.12244-.0818-.24073-.1696-.11829-.0877-.23213-.1811-.11383-.0934-.22295-.1923-.10912-.0989-.21325-.2031-.10414-.1041-.20304-.2132-.09889-.1091-.19232-.223-.09342-.1138-.18115-.2321-.08773-.1183-.16955-.2407-.081814-.1225-.157524-.2488-.07571-.1263-.145132-.2562-.069421-.1299-.132386-.263-.062965-.1331-.119321-.2692-.056357-.136-.10597-.2747-.049613-.1387-.092362-.2796-.04275-.1409-.078533-.2838-.035783-.1428-.064513-.2873-.0287303-.1444-.0503389-.2901-.0216086-.1456-.0360433-.2922-.0144347-.1466-.02166074-.2936-.00722606-.1471-.00722606-.2944v-12.002q0-.14727.00722606-.29436.00722604-.14709.02166074-.29364.0144347-.14656.0360433-.29224.0216086-.14567.0503389-.29011.02873-.14443.064513-.28729.035783-.14285.078533-.28378.042749-.14092.092362-.27958.049613-.13866.10597-.27472.056356-.13606.119321-.26918.062965-.13313.132386-.26301.069422-.12988.145132-.25619.07571-.12632.157524-.24877.08182-.12244.16955-.24073.08772-.11829.18115-.23213.09343-.11383.19232-.22295.0989-.10912.20304-.21325.10413-.10414.21325-.20304.10912-.09889.22295-.19232.11384-.09342.23213-.18115.11829-.08773.24073-.16955.12245-.081814.24877-.157524.12631-.07571.25619-.145132.12988-.069421.26301-.132386.13312-.062965.26918-.119321.13606-.056357.27472-.10597.13866-.049613.27958-.092362.14093-.04275.28378-.078533.14286-.035783.28729-.064513.14444-.0287303.29011-.0503389.14568-.0216086.29224-.0360433.14655-.0144347.29364-.02166074.14709-.00722606.29436-.00722606z" fill="#7bc6ff" fill-rule="evenodd"/><path d="m5.999 2h12.002q.1965 0 .392.01926.1955.01925.3882.05758.1927.03833.3806.09536.188.05702.3696.13221.1815.07518.3547.16779.1733.09261.3366.20175.1634.10915.3152.23378.1519.12463.2908.26355.1389.13892.2636.29078.1246.15187.2337.31521.1092.16335.2018.33661.0926.17327.1678.35477.0752.1815.1322.3695.057.188.0954.38068.0383.19269.0575.3882.0193.19551.0193.39197v12.002q0 .1965-.0193.392-.0192.1955-.0575.3882-.0384.1927-.0954.3806-.057.188-.1322.3696-.0752.1815-.1678.3547-.0926.1733-.2018.3366-.1091.1634-.2337.3152-.1247.1519-.2636.2908-.1389.1389-.2908.2636-.1518.1246-.3152.2337-.1633.1092-.3366.2018-.1732.0926-.3547.1678-.1816.0752-.3696.1322-.1879.057-.3806.0954-.1927.0383-.3882.0575-.1955.0193-.392.0193h-12.002q-.19646 0-.39197-.0193-.19551-.0192-.3882-.0575-.19268-.0384-.38068-.0954-.188-.057-.3695-.1322-.1815-.0752-.35477-.1678-.17326-.0926-.33661-.2018-.16334-.1091-.31521-.2337-.15186-.1247-.29078-.2636-.13892-.1389-.26355-.2908-.12463-.1518-.23378-.3152-.10914-.1633-.20175-.3366-.09261-.1732-.16779-.3547-.07519-.1816-.13221-.3696-.05703-.1879-.09536-.3806-.03833-.1927-.05758-.3882-.01926-.1955-.01926-.392v-12.002q0-.19646.01926-.39197.01925-.19551.05758-.3882.03833-.19268.09536-.38068.05702-.188.13221-.3695.07518-.1815.16779-.35477.09261-.17326.20175-.33661.10915-.16334.23378-.31521.12463-.15186.26355-.29078.13892-.13892.29078-.26355.15187-.12463.31521-.23378.16335-.10914.33661-.20175.17327-.09261.35477-.16779.1815-.07519.3695-.13221.188-.05703.38068-.09536.19269-.03833.3882-.05758.19551-.01926.39197-.01926z" fill="#fff" fill-rule="evenodd"/><path d="m28.3345 4.18182v.85227h-1.1754v4.60227h-1.0653v-4.60227h-.8417v-.85227h.8417v-.6321q0-.51137.2255-.8505.2254-.33913.5948-.50781.3693-.16868.799-.16868.3231 0 .5504.05149.2273.05149.3374.0941l-.2486.85938q-.0746-.02486-.1918-.05327-.1172-.02841-.2841-.02841-.3871 0-.5522.19176-.1651.19177-.1651.55398v.49006zm-5.0231-1.02806q.1971.18644.4741.18644.2735 0 .4723-.18644.1989-.18643.1989-.44566 0-.26279-.1989-.44922-.1988-.18644-.4723-.18644-.277 0-.4741.18644-.1971.18643-.1971.44922 0 .25923.1971.44566zm-21.87674-.79012 2.02415 5.92329h.08167l2.02415-5.92329h1.18608l-2.61719 7.27272h-1.26775l-2.61719-7.27272zm20.64274 1.81818v.85227h-1.1186v3.00071q0 .46165.1971.59482.1971.13316.4563.13316.1279 0 .2237-.01775.0959-.01776.1492-.02841l.1917.87713q-.0923.03551-.2645.0728-.1722.03729-.4244.04084-.419.0071-.783-.14915-.364-.15625-.5859-.48296-.222-.3267-.222-.82031v-3.22088h-.799v-.85227h.799v-1.30682h1.0618v1.30682zm-7.4538 5.21662q.5824.34801 1.3849.34801.8914 0 1.4915-.40483.6001-.40483.7812-1.06889l-1.0049-.18111q-.1421.38707-.4723.58239-.3303.19531-.7848.19531-.6818 0-1.1044-.42614-.4226-.42613-.4439-1.21449h3.8778v-.37642q0-.98721-.3462-1.58913-.3463-.60192-.8985-.87713-.5522-.27521-1.1701-.27521-.7599 0-1.3263.35866-.5664.35866-.8807.99787-.3143.6392-.3143 1.47727 0 .84517.3143 1.4755.3143.63033.8967.97834zm-3.4553-2.02415v-3.19247h1.0654v5.45454h-1.0441v-.9446h-.0568q-.1882.43679-.6019.72621-.4137.28942-1.02806.28942-.7848 0-1.28729-.52024-.50248-.52025-.50248-1.53587v-3.46946h1.06179v3.34162q0 .55753.30895.88778.30895.33026.80255.33026.29834 0 .59484-.14915.2965-.14915.4936-.45277.1971-.30362.1935-.76527zm12.081-3.19247v5.45454h1.0618v-5.45454zm6.4169 7.46268q.1953.0373.4332.0373.657 0 1.0831-.3373.4262-.3374.6641-.9802l2.2479-6.18248h-1.14l-1.3813 4.23295h-.0569l-1.3814-4.23295h-1.1363l1.9957 5.52557-.1314.36221q-.2024.5433-.4989.6445-.2965.1012-.7333-.0195l-.2557.87q.0959.0426.2912.0799zm-12.358-5.21126h-2.8338q.0213-.38707.2078-.71556.1864-.32848.5078-.52911.3214-.20064.7511-.20064.6178 0 .9907.41015.3729.41016.3764 1.03516z" transform="translate(26 6)"/><g transform="translate(4 4)"><path d="m8.00044 0h-3.73774l3.73774 7.73099" fill="#1697f6"/><path d="m8.00049 10v6l-8.00049-13.66699h4.19087zm0-10h3.73721l-3.73721 7.73099" fill="#7bc6ff" fill-rule="evenodd"/><path d="m11.8091 2.33301h4.1909l-7.99951 13.66699v-6z" fill="#aeddff"/></g></svg>

<?xml version="1.0" encoding="utf-8"?>
<svg width="65px" height="24px" viewBox="0 0 65 24" version="1.1" xmlns:xlink="http://www.w3.org/1999/xlink" xmlns="http://www.w3.org/2000/svg">
  <g id="Group-60">
    <g id="Group-54-Copy-4">
      <path d="M5.999 0L59.001 0Q59.1483 0 59.2954 0.00722606Q59.4424 0.0144521 59.589 0.0288868Q59.7356 0.0433215 59.8812 0.0649301Q60.0269 0.0865387 60.1713 0.115269Q60.3158 0.143999 60.4586 0.179782Q60.6015 0.215565 60.7424 0.258315Q60.8833 0.301064 61.022 0.350677Q61.1607 0.40029 61.2967 0.456647Q61.4328 0.513003 61.5659 0.575968Q61.699 0.638933 61.8289 0.708354Q61.9588 0.777776 62.0851 0.853486Q62.2114 0.929196 62.3339 1.01101Q62.4563 1.09283 62.5746 1.18056Q62.6929 1.26828 62.8067 1.36171Q62.9206 1.45514 63.0297 1.55403Q63.1388 1.65293 63.2429 1.75707Q63.3471 1.8612 63.446 1.97032Q63.5449 2.07944 63.6383 2.19327Q63.7317 2.30711 63.8194 2.4254Q63.9072 2.54369 63.989 2.66613Q64.0708 2.78858 64.1465 2.9149Q64.2222 3.04121 64.2916 3.17109Q64.3611 3.30097 64.424 3.4341Q64.487 3.56722 64.5434 3.70328Q64.5997 3.83934 64.6493 3.978Q64.6989 4.11666 64.7417 4.25758Q64.7844 4.39851 64.8202 4.54136Q64.856 4.68422 64.8847 4.82865Q64.9135 4.97309 64.9351 5.11876Q64.9567 5.26444 64.9711 5.411Q64.9855 5.55755 64.9928 5.70464Q65 5.85173 65 5.999L65 18.001Q65 18.1483 64.9928 18.2954Q64.9855 18.4424 64.9711 18.589Q64.9567 18.7356 64.9351 18.8812Q64.9135 19.0269 64.8847 19.1713Q64.856 19.3158 64.8202 19.4586Q64.7844 19.6015 64.7417 19.7424Q64.6989 19.8833 64.6493 20.022Q64.5997 20.1607 64.5434 20.2967Q64.487 20.4328 64.424 20.5659Q64.3611 20.699 64.2916 20.8289Q64.2222 20.9588 64.1465 21.0851Q64.0708 21.2114 63.989 21.3339Q63.9072 21.4563 63.8194 21.5746Q63.7317 21.6929 63.6383 21.8067Q63.5449 21.9206 63.446 22.0297Q63.3471 22.1388 63.2429 22.2429Q63.1388 22.3471 63.0297 22.446Q62.9206 22.5449 62.8067 22.6383Q62.6929 22.7317 62.5746 22.8194Q62.4563 22.9072 62.3339 22.989Q62.2114 23.0708 62.0851 23.1465Q61.9588 23.2222 61.8289 23.2916Q61.699 23.3611 61.5659 23.424Q61.4328 23.487 61.2967 23.5433Q61.1607 23.5997 61.022 23.6493Q60.8833 23.6989 60.7424 23.7417Q60.6015 23.7844 60.4586 23.8202Q60.3158 23.856 60.1713 23.8847Q60.0269 23.9135 59.8812 23.9351Q59.7356 23.9567 59.589 23.9711Q59.4424 23.9855 59.2954 23.9928Q59.1483 24 59.001 24L5.999 24Q5.85173 24 5.70464 23.9928Q5.55755 23.9855 5.411 23.9711Q5.26444 23.9567 5.11876 23.9351Q4.97309 23.9135 4.82865 23.8847Q4.68422 23.856 4.54136 23.8202Q4.39851 23.7844 4.25758 23.7417Q4.11666 23.6989 3.978 23.6493Q3.83934 23.5997 3.70328 23.5433Q3.56722 23.487 3.4341 23.424Q3.30097 23.3611 3.17109 23.2916Q3.04121 23.2222 2.9149 23.1465Q2.78858 23.0708 2.66613 22.989Q2.54369 22.9072 2.4254 22.8194Q2.30711 22.7317 2.19327 22.6383Q2.07944 22.5449 1.97032 22.446Q1.8612 22.3471 1.75707 22.2429Q1.65293 22.1388 1.55403 22.0297Q1.45514 21.9206 1.36171 21.8067Q1.26829 21.6929 1.18056 21.5746Q1.09283 21.4563 1.01101 21.3339Q0.929196 21.2114 0.853486 21.0851Q0.777776 20.9588 0.708354 20.8289Q0.638933 20.699 0.575968 20.5659Q0.513003 20.4328 0.456647 20.2967Q0.40029 20.1607 0.350677 20.022Q0.301064 19.8833 0.258315 19.7424Q0.215565 19.6015 0.179782 19.4586Q0.143999 19.3158 0.115269 19.1713Q0.0865387 19.0269 0.0649301 18.8812Q0.0433215 18.7356 0.0288868 18.589Q0.0144521 18.4424 0.00722606 18.2954Q0 18.1483 0 18.001L0 5.999Q0 5.85173 0.00722606 5.70464Q0.0144521 5.55755 0.0288868 5.411Q0.0433215 5.26444 0.0649301 5.11876Q0.0865387 4.97309 0.115269 4.82865Q0.143999 4.68422 0.179782 4.54136Q0.215565 4.39851 0.258315 4.25758Q0.301064 4.11666 0.350677 3.978Q0.40029 3.83934 0.456647 3.70328Q0.513003 3.56722 0.575968 3.4341Q0.638933 3.30097 0.708354 3.17109Q0.777776 3.04121 0.853486 2.9149Q0.929196 2.78858 1.01101 2.66613Q1.09283 2.54369 1.18056 2.4254Q1.26828 2.30711 1.36171 2.19327Q1.45514 2.07944 1.55403 1.97032Q1.65293 1.8612 1.75707 1.75707Q1.8612 1.65293 1.97032 1.55403Q2.07944 1.45514 2.19327 1.36171Q2.30711 1.26829 2.4254 1.18056Q2.54369 1.09283 2.66613 1.01101Q2.78858 0.929196 2.9149 0.853486Q3.04121 0.777776 3.17109 0.708354Q3.30097 0.638933 3.4341 0.575968Q3.56722 0.513003 3.70328 0.456647Q3.83934 0.40029 3.978 0.350677Q4.11666 0.301064 4.25758 0.258315Q4.39851 0.215565 4.54136 0.179782Q4.68422 0.143999 4.82865 0.115269Q4.97309 0.0865387 5.11876 0.0649301Q5.26444 0.0433215 5.411 0.0288868Q5.55755 0.0144521 5.70464 0.00722606Q5.85173 0 5.999 0Z" id="Rectangle" fill="#7BC6FF" fill-rule="evenodd" stroke="none" />
      <path d="M5.999 2L18.001 2Q18.1975 2 18.393 2.01926Q18.5885 2.03851 18.7812 2.07684Q18.9739 2.11517 19.1618 2.1722Q19.3498 2.22922 19.5314 2.30441Q19.7129 2.37959 19.8861 2.4722Q20.0594 2.56481 20.2227 2.67395Q20.3861 2.7831 20.5379 2.90773Q20.6898 3.03236 20.8287 3.17128Q20.9676 3.3102 21.0923 3.46206Q21.2169 3.61393 21.326 3.77727Q21.4352 3.94062 21.5278 4.11388Q21.6204 4.28715 21.6956 4.46865Q21.7708 4.65015 21.8278 4.83815Q21.8848 5.02615 21.9232 5.21883Q21.9615 5.41152 21.9807 5.60703Q22 5.80254 22 5.999L22 18.001Q22 18.1975 21.9807 18.393Q21.9615 18.5885 21.9232 18.7812Q21.8848 18.9739 21.8278 19.1618Q21.7708 19.3498 21.6956 19.5314Q21.6204 19.7129 21.5278 19.8861Q21.4352 20.0594 21.326 20.2227Q21.2169 20.3861 21.0923 20.5379Q20.9676 20.6898 20.8287 20.8287Q20.6898 20.9676 20.5379 21.0923Q20.3861 21.2169 20.2227 21.326Q20.0594 21.4352 19.8861 21.5278Q19.7129 21.6204 19.5314 21.6956Q19.3498 21.7708 19.1618 21.8278Q18.9739 21.8848 18.7812 21.9232Q18.5885 21.9615 18.393 21.9807Q18.1975 22 18.001 22L5.999 22Q5.80254 22 5.60703 21.9807Q5.41152 21.9615 5.21883 21.9232Q5.02615 21.8848 4.83815 21.8278Q4.65015 21.7708 4.46865 21.6956Q4.28715 21.6204 4.11388 21.5278Q3.94062 21.4352 3.77727 21.326Q3.61393 21.2169 3.46206 21.0923Q3.3102 20.9676 3.17128 20.8287Q3.03236 20.6898 2.90773 20.5379Q2.7831 20.3861 2.67395 20.2227Q2.56481 20.0594 2.4722 19.8861Q2.37959 19.7129 2.30441 19.5314Q2.22922 19.3498 2.1722 19.1618Q2.11517 18.9739 2.07684 18.7812Q2.03851 18.5885 2.01926 18.393Q2 18.1975 2 18.001L2 5.999Q2 5.80254 2.01926 5.60703Q2.03851 5.41152 2.07684 5.21883Q2.11517 5.02615 2.1722 4.83815Q2.22922 4.65015 2.30441 4.46865Q2.37959 4.28715 2.4722 4.11388Q2.56481 3.94062 2.67395 3.77727Q2.7831 3.61393 2.90773 3.46206Q3.03236 3.3102 3.17128 3.17128Q3.3102 3.03236 3.46206 2.90773Q3.61393 2.7831 3.77727 2.67395Q3.94062 2.56481 4.11388 2.4722Q4.28715 2.37959 4.46865 2.30441Q4.65015 2.22922 4.83815 2.1722Q5.02615 2.11517 5.21883 2.07684Q5.41152 2.03851 5.60703 2.01926Q5.80254 2 5.999 2Z" id="Rectangle-2" fill="#FFFFFF" fill-rule="evenodd" stroke="none" />
      <g id="Vuetify" transform="translate(26 6)">
        <path d="M28.3345 4.18182L28.3345 5.03409L27.1591 5.03409L27.1591 9.63636L26.0938 9.63636L26.0938 5.03409L25.2521 5.03409L25.2521 4.18182L26.0938 4.18182L26.0938 3.54972Q26.0938 3.03835 26.3193 2.69922Q26.5447 2.36009 26.9141 2.19141Q27.2834 2.02273 27.7131 2.02273Q28.0362 2.02273 28.2635 2.07422Q28.4908 2.12571 28.6009 2.16832L28.3523 3.0277Q28.2777 3.00284 28.1605 2.97443Q28.0433 2.94602 27.8764 2.94602Q27.4893 2.94602 27.3242 3.13778Q27.1591 3.32955 27.1591 3.69176L27.1591 4.18182L28.3345 4.18182ZM23.3114 3.15376Q23.5085 3.3402 23.7855 3.3402Q24.059 3.3402 24.2578 3.15376Q24.4567 2.96733 24.4567 2.7081Q24.4567 2.44531 24.2578 2.25888Q24.059 2.07244 23.7855 2.07244Q23.5085 2.07244 23.3114 2.25888Q23.1143 2.44531 23.1143 2.7081Q23.1143 2.96733 23.3114 3.15376ZM1.43466 2.36364L3.45881 8.28693L3.54048 8.28693L5.56463 2.36364L6.75071 2.36364L4.13352 9.63636L2.86577 9.63636L0.24858 2.36364L1.43466 2.36364ZM22.0774 4.18182L22.0774 5.03409L20.9588 5.03409L20.9588 8.0348Q20.9588 8.49645 21.1559 8.62962Q21.353 8.76278 21.6122 8.76278Q21.7401 8.76278 21.8359 8.74503Q21.9318 8.72727 21.9851 8.71662L22.1768 9.59375Q22.0845 9.62926 21.9123 9.66655Q21.7401 9.70384 21.4879 9.70739Q21.0689 9.71449 20.7049 9.55824Q20.3409 9.40199 20.119 9.07528Q19.897 8.74858 19.897 8.25497L19.897 5.03409L19.098 5.03409L19.098 4.18182L19.897 4.18182L19.897 2.875L20.9588 2.875L20.9588 4.18182L22.0774 4.18182ZM14.6236 9.39844Q15.206 9.74645 16.0085 9.74645Q16.8999 9.74645 17.5 9.34162Q18.1001 8.93679 18.2812 8.27273L17.2763 8.09162Q17.1342 8.47869 16.804 8.67401Q16.4737 8.86932 16.0192 8.86932Q15.3374 8.86932 14.9148 8.44318Q14.4922 8.01705 14.4709 7.22869L18.3487 7.22869L18.3487 6.85227Q18.3487 5.86506 18.0025 5.26314Q17.6562 4.66122 17.104 4.38601Q16.5518 4.1108 15.9339 4.1108Q15.174 4.1108 14.6076 4.46946Q14.0412 4.82812 13.7269 5.46733Q13.4126 6.10653 13.4126 6.9446Q13.4126 7.78977 13.7269 8.4201Q14.0412 9.05043 14.6236 9.39844ZM11.1683 7.37429L11.1683 4.18182L12.2337 4.18182L12.2337 9.63636L11.1896 9.63636L11.1896 8.69176L11.1328 8.69176Q10.9446 9.12855 10.5309 9.41797Q10.1172 9.70739 9.50284 9.70739Q8.71804 9.70739 8.21555 9.18715Q7.71307 8.6669 7.71307 7.65128L7.71307 4.18182L8.77486 4.18182L8.77486 7.52344Q8.77486 8.08097 9.08381 8.41122Q9.39276 8.74148 9.88636 8.74148Q10.1847 8.74148 10.4812 8.59233Q10.7777 8.44318 10.9748 8.13956Q11.1719 7.83594 11.1683 7.37429ZM23.2493 4.18182L23.2493 9.63636L24.3111 9.63636L24.3111 4.18182L23.2493 4.18182ZM29.6662 11.6445Q29.8615 11.6818 30.0994 11.6818Q30.7564 11.6818 31.1825 11.3445Q31.6087 11.0071 31.8466 10.3643L34.0945 4.18182L32.9545 4.18182L31.5732 8.41477L31.5163 8.41477L30.1349 4.18182L28.9986 4.18182L30.9943 9.70739L30.8629 10.0696Q30.6605 10.6129 30.364 10.7141Q30.0675 10.8153 29.6307 10.6946L29.375 11.5646Q29.4709 11.6072 29.6662 11.6445ZM17.3082 6.43324L14.4744 6.43324Q14.4957 6.04617 14.6822 5.71768Q14.8686 5.3892 15.19 5.18857Q15.5114 4.98793 15.9411 4.98793Q16.5589 4.98793 16.9318 5.39808Q17.3047 5.80824 17.3082 6.43324Z" />
      </g>
    </g>
    <g id="Vuetify" transform="translate(4 4)">
      <path d="M8.00044 0L4.2627 0L8.00044 7.73099" id="Shape" fill="#1697F6" stroke="none" />
      <path d="M8.00049 10L8.00049 16L0 2.33301L4.19087 2.33301L8.00049 10L8.00049 10ZM8.00049 0L11.7377 0L8.00049 7.73099" id="Shape" fill="#7BC6FF" fill-rule="evenodd" stroke="none" />
      <path d="M11.8091 2.33301L16 2.33301L8.00049 16L8.00049 10L11.8091 2.33301L11.8091 2.33301Z" id="Shape" fill="#AEDDFF" stroke="none" />
    </g>
  </g>
</svg>
